docs/img/product-detail/delivery-ic-03.svg

<svg width="47" height="47" viewBox="0 0 47 47" fill="none" xmlns="http://www.w3.org/2000/svg">
<path d="M10.6927 6.94501C10.6927 6.23679 10.4827 5.54449 10.0892 4.95564C9.69583 4.36679 9.13658 3.90784 8.48225 3.63682C7.828 3.36581 7.10801 3.2949 6.41342 3.43307C5.71882 3.57122 5.0808 3.91226 4.58002 4.41303C4.07925 4.91381 3.73822 5.55183 3.60006 6.24642C3.46189 6.94101 3.5328 7.66101 3.80382 8.31526C4.07483 8.96959 4.53378 9.52884 5.12263 9.92226C5.71148 10.3157 6.40378 10.5258 7.11198 10.5258C8.06133 10.5246 8.97142 10.1469 9.64267 9.47567C10.3139 8.80442 10.6916 7.89434 10.6927 6.94501ZM4.96354 6.94501C4.96354 6.52009 5.08955 6.10469 5.32562 5.75138C5.56169 5.39807 5.89723 5.1227 6.28981 4.96009C6.68238 4.79748 7.11437 4.75493 7.53108 4.83783C7.94792 4.92073 8.33067 5.12535 8.63117 5.42582C8.93158 5.72627 9.13625 6.10909 9.21917 6.52584C9.302 6.94259 9.2595 7.37459 9.09692 7.76717C8.93425 8.15976 8.65892 8.49526 8.30558 8.73134C7.95225 8.96742 7.53692 9.09342 7.11198 9.09342C6.54218 9.09342 5.99572 8.86709 5.59281 8.46417C5.1899 8.06126 4.96354 7.51476 4.96354 6.94501Z" fill="#397345"/>
<path d="M43.6361 36.3074C43.6361 35.5991 43.4261 34.9069 43.0326 34.318C42.6392 33.7291 42.0799 33.2702 41.4257 32.9992C40.7713 32.7281 40.0514 32.6572 39.3567 32.7954C38.6622 32.9335 38.0242 33.2746 37.5234 33.7754C37.0226 34.2761 36.6816 34.9142 36.5434 35.6088C36.4052 36.3034 36.4762 37.0233 36.7472 37.6776C37.0182 38.3319 37.4772 38.8911 38.066 39.2846C38.6548 39.678 39.3472 39.888 40.0553 39.888C41.0047 39.8869 41.9148 39.5093 42.5861 38.838C43.2573 38.1668 43.6349 37.2566 43.6361 36.3074ZM37.9069 36.3074C37.9069 35.8824 38.0329 35.467 38.269 35.1137C38.5051 34.7604 38.8406 34.485 39.2332 34.3224C39.6257 34.1598 40.0577 34.1173 40.4745 34.2002C40.8912 34.283 41.2741 34.4877 41.5745 34.7881C41.875 35.0886 42.0796 35.4715 42.1625 35.8882C42.2454 36.305 42.2028 36.7369 42.0402 37.1295C41.8777 37.522 41.6023 37.8576 41.249 38.0937C40.8957 38.3298 40.4802 38.4558 40.0553 38.4558C39.4856 38.4558 38.9391 38.2295 38.5362 37.8265C38.1332 37.4236 37.9069 36.8771 37.9069 36.3074Z" fill="#397345"/>
<path d="M8.54421 20.5518C8.35429 20.5518 8.17213 20.6272 8.03788 20.7615C7.90354 20.8958 7.82812 21.078 7.82812 21.2679V33.4423C7.82812 33.6323 7.90354 33.8145 8.03788 33.9488C8.17213 34.0831 8.35429 34.1585 8.54421 34.1585H22.8671C23.057 34.1585 23.2392 34.0831 23.3735 33.9488C23.5079 33.8145 23.5833 33.6323 23.5833 33.4423V21.2679C23.5833 21.078 23.5079 20.8958 23.3735 20.7615C23.2392 20.6272 23.057 20.5518 22.8671 20.5518H8.54421ZM17.138 21.984V24.8487H14.2734V21.984H17.138ZM22.151 32.7263H9.26038V21.984H12.8411V25.5648C12.8411 25.7547 12.9165 25.9368 13.0509 26.0712C13.1851 26.2055 13.3673 26.2809 13.5573 26.2809H17.8541C18.044 26.2809 18.2262 26.2055 18.3605 26.0712C18.4948 25.9368 18.5703 25.7547 18.5703 25.5648V21.984H22.151V32.7263Z" fill="#397345"/>
<path d="M14.9896 28.4297H10.6926C10.5027 28.4297 10.3206 28.5052 10.1863 28.6394C10.052 28.7738 9.97656 28.9559 9.97656 29.1459C9.97656 29.3358 10.052 29.5179 10.1863 29.6523C10.3206 29.7865 10.5027 29.862 10.6926 29.862H14.9896C15.1795 29.862 15.3616 29.7865 15.496 29.6523C15.6302 29.5179 15.7057 29.3358 15.7057 29.1459C15.7057 28.9559 15.6302 28.7738 15.496 28.6394C15.3616 28.5052 15.1795 28.4297 14.9896 28.4297Z" fill="#397345"/>
<path d="M12.8411 30.5781H10.6926C10.5027 30.5781 10.3206 30.6535 10.1863 30.7879C10.052 30.9221 9.97656 31.1043 9.97656 31.2942C9.97656 31.4841 10.052 31.6663 10.1863 31.8006C10.3206 31.935 10.5027 32.0104 10.6926 32.0104H12.8411C13.0311 32.0104 13.2132 31.935 13.3475 31.8006C13.4818 31.6663 13.5573 31.4841 13.5573 31.2942C13.5573 31.1043 13.4818 30.9221 13.3475 30.7879C13.2132 30.6535 13.0311 30.5781 12.8411 30.5781Z" fill="#397345"/>
<path d="M42.9193 44.9013H41.8229C43.5825 43.0802 46.5 39.5725 46.5 36.3076C46.5 34.5982 45.821 32.9588 44.6123 31.7501C43.4035 30.5413 41.7641 29.8623 40.0547 29.8623C38.3453 29.8623 36.706 30.5413 35.4972 31.7501C34.2885 32.9588 33.6094 34.5982 33.6094 36.3076C33.6094 39.5725 36.527 43.0802 38.2865 44.9013H37.1901C37.0002 44.9013 36.818 44.9768 36.6838 45.1111C36.5495 45.2454 36.474 45.4276 36.474 45.6175C36.474 45.8074 36.5495 45.9896 36.6838 46.1239C36.818 46.2582 37.0002 46.3336 37.1901 46.3336H42.9193C43.1092 46.3336 43.2914 46.2582 43.4257 46.1239C43.56 45.9896 43.6355 45.8074 43.6355 45.6175C43.6355 45.4276 43.56 45.2454 43.4257 45.1111C43.2914 44.9768 43.1092 44.9013 42.9193 44.9013ZM40.0547 31.2946C41.3838 31.2961 42.658 31.8247 43.5978 32.7646C44.5376 33.7043 45.0662 34.9786 45.0677 36.3076C45.0677 39.536 41.3846 43.3638 40.0547 44.6406C38.7241 43.3645 35.0417 39.541 35.0417 36.3076C35.0432 34.9786 35.5719 33.7043 36.5116 32.7646C37.4515 31.8247 38.7256 31.2961 40.0547 31.2946Z" fill="#397345"/>
<path d="M4.24675 15.5391C4.05681 15.5391 3.87466 15.6145 3.74036 15.7488C3.60605 15.8831 3.5306 16.0653 3.5306 16.2552C3.5306 16.4452 3.60605 16.6273 3.74036 16.7616C3.87466 16.8959 4.05681 16.9713 4.24675 16.9713H9.97593C10.1658 16.9713 10.348 16.8959 10.4823 16.7616C10.6166 16.6273 10.692 16.4452 10.692 16.2552C10.692 16.0653 10.6166 15.8831 10.4823 15.7488C10.348 15.6145 10.1658 15.5391 9.97593 15.5391H8.87952C10.6391 13.7179 13.5567 10.2102 13.5567 6.94533C13.5567 5.23591 12.8776 3.59652 11.6688 2.38779C10.4601 1.17906 8.82077 0.5 7.11133 0.5C5.40192 0.5 3.76253 1.17906 2.55381 2.38779C1.34507 3.59652 0.666016 5.23591 0.666016 6.94533C0.666016 10.2102 3.58359 13.7179 5.34317 15.5391H4.24675ZM7.11133 1.93229C8.44043 1.93381 9.7146 2.46245 10.6544 3.40225C11.5942 4.34204 12.1228 5.61624 12.1243 6.94533C12.1243 10.1737 8.44118 14.0015 7.11133 15.2784C5.78073 14.0022 2.09831 10.1788 2.09831 6.94533C2.09982 5.61624 2.62847 4.34204 3.56827 3.40225C4.50806 2.46245 5.78226 1.93381 7.11133 1.93229Z" fill="#397345"/>
<path d="M12.125 16.2551C12.125 16.4451 12.2004 16.6273 12.3347 16.7616C12.4691 16.8959 12.6512 16.9713 12.8412 16.9713H28.5963C29.1662 16.9713 29.7126 17.1976 30.1155 17.6006C30.5184 18.0035 30.7448 18.55 30.7448 19.1198V30.5781C30.7448 31.1479 30.5184 31.6944 30.1155 32.0973C29.7126 32.5002 29.1662 32.7266 28.5963 32.7266H25.0157C24.8257 32.7266 24.6435 32.802 24.5092 32.9363C24.3749 33.0706 24.2995 33.2527 24.2995 33.4426C24.2995 33.6326 24.3749 33.8148 24.5092 33.9491C24.6435 34.0834 24.8257 34.1588 25.0157 34.1588H28.5963C29.5457 34.1577 30.4558 33.7801 31.1271 33.1088C31.7983 32.4376 32.1759 31.5274 32.1771 30.5781V19.1198C32.1759 18.1705 31.7983 17.2603 31.1271 16.5891C30.4558 15.9178 29.5457 15.5401 28.5963 15.5391H12.8412C12.6512 15.5391 12.4691 15.6145 12.3347 15.7488C12.2004 15.8831 12.125 16.0652 12.125 16.2551Z" fill="#397345"/>
<path d="M34.3248 44.901H3.5306C3.15073 44.901 2.78642 44.7501 2.51782 44.4815C2.24921 44.2129 2.09831 43.8486 2.09831 43.4687V35.5911C2.09831 35.2112 2.24921 34.847 2.51782 34.5783C2.78642 34.3097 3.15073 34.1588 3.5306 34.1588H6.39518C6.58512 34.1588 6.76727 34.0834 6.90157 33.9491C7.03587 33.8148 7.11133 33.6326 7.11133 33.4426C7.11133 33.2527 7.03587 33.0706 6.90157 32.9363C6.76727 32.802 6.58512 32.7266 6.39518 32.7266H3.5306C2.77087 32.7266 2.04225 33.0283 1.50503 33.5656C0.967816 34.1028 0.666016 34.8314 0.666016 35.5911V43.4687C0.666016 44.2285 0.967816 44.9571 1.50503 45.4943C2.04225 46.0315 2.77087 46.3333 3.5306 46.3333H34.3248C34.5148 46.3333 34.6969 46.2579 34.8313 46.1236C34.9656 45.9892 35.041 45.8071 35.041 45.6171C35.041 45.4272 34.9656 45.2451 34.8313 45.1108C34.6969 44.9765 34.5148 44.901 34.3248 44.901Z" fill="#397345"/>
</svg>

<svg width="47" height="47" fill="none" xmlns="http://www.w3.org/2000/svg"><path d="M10.693 6.945a3.58 3.58 0 10-7.161 0 3.58 3.58 0 007.16 0zm-5.73 0a2.149 2.149 0 114.298 0 2.149 2.149 0 01-4.297 0zm38.673 29.362a3.58 3.58 0 10-7.16 0 3.58 3.58 0 007.16 0zm-5.73 0a2.148 2.148 0 114.298 0 2.148 2.148 0 01-4.297 0zM8.544 20.552a.716.716 0 00-.716.716v12.174a.716.716 0 00.716.716h14.323a.716.716 0 00.716-.716V21.268a.716.716 0 00-.716-.716H8.544zm8.594 1.432v2.865h-2.865v-2.865h2.865zm5.013 10.742H9.261V21.984h3.58v3.58a.716.716 0 00.716.717h4.297a.716.716 0 00.716-.716v-3.581h3.581v10.742z" fill="#397345"/><path d="M14.99 28.43h-4.297a.716.716 0 000 1.432h4.297a.717.717 0 000-1.432zm-2.149 2.148h-2.148a.716.716 0 100 1.432h2.148a.716.716 0 100-1.432zM42.92 44.901h-1.097c1.76-1.82 4.677-5.329 4.677-8.593a6.445 6.445 0 10-12.89 0c0 3.264 2.917 6.772 4.676 8.593H37.19a.716.716 0 000 1.433h5.73a.716.716 0 100-1.433zm-2.865-13.606a5.018 5.018 0 015.013 5.013c0 3.228-3.683 7.056-5.013 8.333-1.33-1.276-5.013-5.1-5.013-8.333a5.019 5.019 0 015.013-5.013zM4.247 15.54a.716.716 0 100 1.431h5.729a.716.716 0 100-1.432H8.88c1.76-1.821 4.677-5.329 4.677-8.594a6.445 6.445 0 00-12.891 0c0 3.265 2.918 6.773 4.677 8.594H4.247zM7.11 1.931a5.019 5.019 0 015.013 5.013c0 3.229-3.683 7.056-5.013 8.333-1.33-1.276-5.013-5.1-5.013-8.333A5.019 5.019 0 017.11 1.931zm5.015 14.324a.716.716 0 00.716.716h15.755a2.148 2.148 0 012.149 2.149v11.458a2.149 2.149 0 01-2.149 2.149h-3.58a.716.716 0 100 1.432h3.58a3.585 3.585 0 003.581-3.58v-11.46a3.585 3.585 0 00-3.58-3.58H12.84a.716.716 0 00-.716.716zm22.2 28.646H3.53a1.432 1.432 0 01-1.433-1.432V35.59a1.432 1.432 0 011.433-1.432h2.864a.716.716 0 100-1.432H3.531A2.864 2.864 0 00.666 35.59v7.878a2.865 2.865 0 002.865 2.864h30.794a.716.716 0 100-1.432z" fill="#397345"/></svg>
